img/decorate-car.svg

<svg width="106" height="84" viewBox="0 0 106 84" fill="none" xmlns="http://www.w3.org/2000/svg">
<path d="M75.4729 53.8567C76.8017 54.9324 78.7536 54.4046 79.6636 53.0228C80.681 51.4766 79.7815 49.1313 77.8394 48.9269C77.6569 48.9081 77.5037 48.8253 77.3883 48.7077C76.4746 48.6957 75.6074 48.9616 74.9264 49.7541C73.8677 50.9889 74.2646 52.8785 75.4729 53.8567ZM72.7162 49.4694C73.8526 47.1335 77.2356 45.7022 79.5421 47.1963C79.7757 47.3473 79.9024 47.5598 79.953 47.7829C81.6866 48.5727 82.7456 50.7189 82.2278 52.7275C81.492 55.5859 78.2274 57.5129 75.441 56.2888C72.9545 55.197 71.4897 51.9925 72.7162 49.4694Z" fill="#8DD9E5"/>
<path d="M5.04958 66.9503C6.7424 71.9413 9.8143 76.3153 11.8596 81.1544C11.965 81.0515 12.0838 80.9539 12.2307 80.8699C16.0195 78.6821 20.1501 77.1651 24.3875 76.1149C22.6079 73.1148 22.1006 69.4602 23.6746 65.627C25.9121 60.1788 34.7921 52.0753 40.43 57.8617L40.6402 58.1691C44.5472 58.7812 47.9192 61.5046 49.6845 65.0408C52.6591 63.9822 55.5753 62.8034 58.443 61.4807C60.6922 60.4409 62.932 58.9388 65.3523 58.3736C64.5048 56.9517 63.8895 55.3788 63.6042 53.6923C62.3563 46.321 67.772 38.8574 75.2174 38.0984C75.7102 38.049 76.0768 38.2173 76.3318 38.494C81.2109 38.1732 86.3425 40.6081 89.4136 44.5329C93.8436 42.9854 98.4098 41.7213 102.927 40.4704C103.187 40.3969 103.407 40.4237 103.606 40.4838C94.9289 28.613 82.1178 12.3389 66.4088 24.1135C65.1561 25.0529 63.8968 23.2462 64.6284 22.1116C57.1752 10.0163 44.821 0.315671 29.773 4.4116C11.3776 9.41758 7.64888 31.0304 16.2131 46.0243C16.5776 46.6644 16.5402 47.2631 16.2758 47.7308C16.5228 48.5153 16.1824 49.4654 15.1491 49.3505C4.57964 48.1678 2.34081 58.9616 5.04958 66.9503ZM38.7111 80.0957C43.7394 79.5946 48.0084 75.0515 47.6845 69.8407C47.3398 64.2855 42.5358 61.0678 37.6009 59.9637C37.3845 59.9141 37.239 59.8113 37.1284 59.6872C31.7194 58.6475 26.1163 65.1181 25.9508 70.179C25.7452 76.4933 33.0932 80.6533 38.7111 80.0957ZM78.4136 62.4386C84.2962 61.9244 90.0535 56.3797 88.5672 50.2298C87.2812 44.9098 81.456 41.3591 76.0319 40.997C75.9115 41.0798 75.7915 41.164 75.6388 41.2134C70.8108 42.7369 66.4651 46.4319 66.5507 51.9457C66.6456 58.0729 72.4889 62.9585 78.4136 62.4386ZM0.402344 56.5374C1.63992 50.8031 6.36592 46.0537 12.0078 46.166C2.76936 30.7658 8.7329 8.30708 26.0949 1.84714C42.1927 -4.1424 59.8917 5.06508 66.4063 20.3677C71.7907 16.0299 79.8128 16.1434 86.0577 18.7079C95.2303 22.4738 101.203 31.4033 105.835 39.7328C106.443 40.8286 105.238 41.6892 104.342 41.2442C104.511 41.8201 104.302 42.5298 103.57 42.8024C99.4425 44.3485 95.2725 45.9014 91.0548 47.2097C91.2764 47.6854 91.4802 48.1732 91.6424 48.6756C94.1539 56.488 87.1638 64.156 79.735 65.3373C74.5394 66.1657 69.3453 63.7764 66.2566 59.7219C64.3332 61.8242 61.2612 63.0964 58.7439 64.323C56.1104 65.6072 53.4131 66.7446 50.682 67.8043C50.9689 69.0389 51.0737 70.322 50.9402 71.6166C50.1064 79.6619 42.2918 84.7599 34.6132 83.1322C31.3964 82.4505 28.482 80.8431 26.3366 78.6444C21.9911 79.9046 17.9513 81.6983 13.9355 83.7894C12.8809 84.3392 11.9023 83.7321 11.5445 82.8942C10.7702 83.6172 9.27226 83.7294 8.6408 82.6201C4.27659 74.9522 -1.59619 65.7853 0.402344 56.5374Z" fill="#8DD9E5"/>
<path d="M36.1525 72.0431C37.1795 72.312 38.4273 72.0165 38.99 71.0518C39.8463 69.5813 38.6103 67.6384 36.8983 67.8591C36.6693 67.89 36.5213 67.7532 36.4551 67.5757C35.5878 67.8523 34.8661 68.4402 34.5631 69.4225C34.1819 70.6587 34.9573 71.7288 36.1525 72.0431ZM32.122 69.4425C32.4998 66.822 35.4355 64.1721 38.1531 65.2825C38.6526 65.4871 38.9019 65.9945 38.8841 66.4597C40.5884 66.7389 41.9167 68.4256 41.7383 70.4541C41.4874 73.2938 38.9432 74.9393 36.234 74.4955C33.7627 74.0915 31.7441 72.0687 32.122 69.4425Z" fill="#8DD9E5"/>
<path d="M43.7536 31.0304C47.7102 29.9894 51.5353 28.6344 55.3626 27.1951C55.2666 27.0601 55.181 26.9078 55.1227 26.7234C52.6335 18.9765 45.0682 12.1037 36.5913 12.566C39.2359 18.6064 41.7552 24.7509 43.7536 31.0304ZM34.1407 9.47639C44.8862 9.29865 55.2922 14.8819 58.2225 25.8668C58.3867 26.4802 58.2178 26.9813 57.8898 27.3261C57.9293 27.6361 57.8292 27.9648 57.5216 28.1519C53.0101 30.9115 48.1122 32.8359 43.1173 34.5197C42.2339 34.8177 41.4512 34.1682 41.1476 33.4011C38.3274 26.2663 35.7137 19.0741 32.6802 12.0221C32.1849 10.8715 32.7456 9.49911 34.1407 9.47639Z" fill="#8DD9E5"/>
<path d="M32.6591 35.3509C33.0517 34.6426 31.3695 31.0745 31.1492 30.3342C29.6794 25.383 28.1 20.4104 26.9813 15.3577C19.7801 22.0114 19.0339 30.2727 20.9016 39.5002C23.4341 38.665 25.976 37.8512 28.4925 36.9665C29.3122 36.6792 32.2226 36.1393 32.6591 35.3509ZM26.5701 12.6048L26.5848 12.6008C26.8785 12.0021 27.7689 11.7054 28.1054 12.4698C29.8262 16.3867 31.1439 20.4732 32.4789 24.5344C33.4936 27.6201 36.127 32.3481 35.8846 35.4992C35.7536 37.2044 35.4173 37.5358 33.9635 38.4071C30.2855 40.6121 24.8185 41.4473 20.7761 42.7783C19.8122 43.095 19.134 42.4736 18.9498 41.7092C18.7348 41.597 18.5319 41.4393 18.3744 41.18C12.6177 31.7187 18.118 18.3097 26.5701 12.6048Z" fill="#8DD9E5"/>
</svg>

<svg width="106" height="84" viewBox="0 0 106 84" fill="none" xmlns="http://www.w3.org/2000/svg"><path d="M75.473 53.857c1.329 1.075 3.28.548 4.19-.834 1.018-1.546.118-3.892-1.824-4.096a.731.731 0 01-.45-.22c-.914-.011-1.782.255-2.463 1.047-1.058 1.235-.661 3.125.547 4.103zm-2.757-4.388c1.137-2.336 4.52-3.767 6.826-2.273a.93.93 0 01.411.587c1.734.79 2.793 2.936 2.275 4.944-.736 2.859-4 4.786-6.787 3.562-2.487-1.092-3.951-4.297-2.725-6.82z" fill="#8DD9E5"/><path d="M5.05 66.95c1.692 4.991 4.764 9.365 6.81 14.204.105-.102.224-.2.37-.284 3.79-2.188 7.92-3.705 12.157-4.755-1.78-3-2.286-6.655-.712-10.488 2.237-5.448 11.117-13.552 16.755-7.765l.21.307c3.907.612 7.28 3.336 9.044 6.872a104.63 104.63 0 008.759-3.56c2.25-1.04 4.489-2.542 6.91-3.107a13.557 13.557 0 01-1.749-4.682c-1.248-7.371 4.168-14.835 11.613-15.594.493-.049.86.12 1.115.396 4.879-.32 10.01 2.114 13.082 6.039 4.43-1.548 8.996-2.812 13.513-4.063.26-.073.48-.046.679.014-8.677-11.871-21.488-28.145-37.197-16.37-1.253.939-2.512-.868-1.78-2.002C57.174 10.016 44.82.316 29.772 4.412 11.378 9.418 7.649 31.03 16.213 46.024c.365.64.327 1.24.063 1.707.247.784-.094 1.734-1.127 1.62-10.57-1.183-12.808 9.61-10.1 17.6zm33.66 13.146c5.028-.501 9.297-5.044 8.974-10.255-.345-5.555-5.15-8.773-10.084-9.877a.866.866 0 01-.473-.277c-5.409-1.04-11.012 5.431-11.177 10.492-.206 6.314 7.142 10.474 12.76 9.917zm39.703-17.657c5.882-.515 11.64-6.06 10.153-12.21-1.286-5.32-7.111-8.87-12.535-9.232-.12.083-.24.167-.393.216-4.828 1.524-9.174 5.219-9.088 10.733.095 6.127 5.938 11.013 11.863 10.493zM.402 56.537c1.238-5.734 5.964-10.483 11.606-10.371-9.239-15.4-3.275-37.859 14.087-44.319 16.098-5.99 33.797 3.218 40.311 18.52 5.385-4.337 13.407-4.224 19.652-1.66 9.172 3.767 15.145 12.696 19.777 21.026.608 1.096-.597 1.956-1.493 1.511.169.576-.04 1.286-.772 1.558-4.127 1.547-8.297 3.1-12.515 4.408.221.475.425.963.587 1.466 2.512 7.812-4.478 15.48-11.907 16.661-5.196.829-10.39-1.56-13.478-5.615-1.924 2.102-4.996 3.374-7.513 4.601-2.634 1.284-5.33 2.422-8.062 3.481a11.57 11.57 0 01.258 3.813c-.834 8.045-8.648 13.143-16.327 11.515-3.217-.681-6.131-2.289-8.276-4.488-4.346 1.26-8.386 3.054-12.402 5.145-1.054.55-2.033-.057-2.39-.895-.775.723-2.273.835-2.904-.274C4.277 74.952-1.596 65.785.402 56.537z" fill="#8DD9E5"/><path d="M36.153 72.043c1.026.269 2.274-.027 2.837-.991.856-1.47-.38-3.414-2.092-3.193-.229.031-.377-.106-.443-.283-.867.276-1.589.864-1.892 1.847-.381 1.236.394 2.306 1.59 2.62zm-4.031-2.6c.378-2.621 3.313-5.27 6.031-4.16.5.204.749.712.731 1.177 1.704.279 3.033 1.966 2.854 3.994-.25 2.84-2.795 4.485-5.504 4.042-2.471-.404-4.49-2.427-4.112-5.053zM43.754 31.03c3.956-1.04 7.781-2.396 11.609-3.835a1.675 1.675 0 01-.24-.472c-2.49-7.746-10.055-14.62-18.532-14.157 2.645 6.04 5.164 12.185 7.163 18.464zM34.14 9.476c10.745-.177 21.151 5.406 24.081 16.39.165.614-.004 1.115-.332 1.46.04.31-.06.639-.368.826-4.512 2.76-9.41 4.684-14.405 6.368-.883.298-1.666-.352-1.97-1.119-2.82-7.135-5.433-14.327-8.467-21.379-.495-1.15.066-2.523 1.46-2.546zM32.66 35.35c.392-.707-1.29-4.276-1.51-5.016-1.47-4.951-3.05-9.924-4.169-14.976-7.2 6.653-7.947 14.915-6.08 24.142 2.533-.835 5.075-1.649 7.591-2.533.82-.288 3.73-.828 4.167-1.616zm-6.09-22.745l.015-.004c.293-.599 1.184-.896 1.52-.131 1.721 3.917 3.039 8.003 4.374 12.064 1.015 3.086 3.648 7.814 3.406 10.965-.131 1.705-.468 2.037-1.921 2.908-3.678 2.205-9.145 3.04-13.188 4.371-.964.317-1.642-.304-1.826-1.069a1.408 1.408 0 01-.576-.529c-5.756-9.461-.256-22.87 8.196-28.575z" fill="#8DD9E5"/></svg>
